buildsupport/Graphics/pictures/svg/orangefruit.svg

<?xml version="1.0" encoding="UTF-8"?>
<svg xmlns="http://www.w3.org/2000/svg" xmlns:xlink="http://www.w3.org/1999/xlink" width="1024pt" height="999pt" viewBox="0 0 1024 999" version="1.1">
<g id="surface1">
<path style="fill-rule:evenodd;fill:rgb(0%,0%,0%);fill-opacity:1;stroke-width:0.036;stroke-linecap:butt;stroke-linejoin:miter;stroke:rgb(0%,0%,0%);stroke-opacity:1;stroke-miterlimit:10;" d="M 75.744365 14.922369 C 66.600229 20.970177 57.92421 28.493965 49.716307 39.293843 C 41.435672 50.021778 30.023685 62.046225 26.71205 78.858326 C 23.364049 95.74237 24.300282 121.661767 29.663893 139.265235 C 34.956319 156.618838 43.883806 172.782684 58.392326 182.608631 C 73.007624 192.367277 97.235948 198.630139 116.099887 197.513097 C 134.710811 196.181001 155.878968 186.785935 169.740636 175.302217 C 183.456067 163.638256 192.88881 146.070373 198.179689 128.718316 C 203.40093 111.222375 204.409122 88.541935 200.915656 71.801003 C 197.172271 54.988902 185.976933 40.264679 176.507823 28.996789 C 166.897892 17.666239 156.197752 9.026182 143.998091 4.633824 C 131.612731 0.277825 115.196925 1.21385 103.643342 3.013959 C 92.163266 4.814067 84.711313 8.737639 75.746686 14.930105 Z M 75.744365 14.922369 " transform="matrix(5.048488,0,0,5.049609,0,0.772876)"/>
<path style="fill-rule:evenodd;fill:rgb(100%,50.196078%,0%);fill-opacity:1;stroke-width:0.036;stroke-linecap:butt;stroke-linejoin:miter;stroke:rgb(0%,0%,0%);stroke-opacity:1;stroke-miterlimit:10;" d="M 76.8957 16.866362 C 68.040171 22.733927 59.832269 29.969946 51.840241 40.375301 C 43.739889 50.635223 33.083852 62.515011 29.591935 78.534972 C 26.136383 94.59129 26.747642 118.890822 31.571952 136.026277 C 36.46822 153.054979 44.532206 169.902665 58.68016 179.911176 C 72.828115 189.703859 97.020072 195.968268 115.56136 194.814868 C 133.992775 193.518356 155.160931 183.475035 168.66126 172.314671 C 181.909347 160.902896 190.295986 144.521676 195.228619 127.639179 C 200.015789 110.646835 201.095939 88.074696 197.641161 71.731382 C 194.039371 55.350935 183.240965 41.311326 174.130874 30.438732 C 164.916327 19.49497 154.511758 11.142683 142.776345 6.931341 C 130.859875 2.826753 114.91296 3.546952 103.825173 5.34706 C 92.731196 7.000963 85.567077 10.88895 76.891057 16.864815 Z M 76.8957 16.866362 " transform="matrix(5.048488,0,0,5.049609,0,0.772876)"/>
<path style="fill-rule:evenodd;fill:rgb(0%,0%,0%);fill-opacity:1;stroke-width:0.036;stroke-linecap:butt;stroke-linejoin:miter;stroke:rgb(0%,0%,0%);stroke-opacity:1;stroke-miterlimit:10;" d="M 121.790019 7.86582 C 123.373878 5.958184 124.598719 5.057743 125.319077 5.166044 C 125.965155 5.309929 125.46222 7.68635 126.146985 8.405775 C 126.865796 9.017673 127.801255 9.017673 129.385114 8.694318 C 133.058863 8.333832 136.08189 8.37019 138.314923 8.94573 C 140.582774 9.485685 143.786084 11.501621 142.921809 11.93405 C 141.913618 12.221819 135.434264 10.926082 132.624791 11.106325 C 129.781273 11.250209 127.620972 11.753807 126.146212 12.761775 C 124.597171 11.64628 123.013312 12.221819 121.249944 14.633826 C 119.376704 17.010247 117.108853 23.634368 115.562133 27.126285 C 113.83281 30.546259 112.105034 36.017754 111.780834 35.226387 C 111.493774 34.254003 112.860984 25.722247 113.941134 21.978145 C 114.913734 18.269627 116.172619 15.282081 117.72166 13.01396 C 115.524994 12.221819 114.300153 11.501621 113.654074 10.854139 C 113.041267 10.205883 112.754207 9.3418 114.193376 8.94573 C 115.562907 8.405775 118.042765 8.046063 121.793114 7.86582 Z M 121.790019 7.86582 " transform="matrix(5.048488,0,0,5.049609,0,0.772876)"/>
<path style="fill-rule:evenodd;fill:rgb(0%,0%,0%);fill-opacity:1;stroke-width:0.036;stroke-linecap:butt;stroke-linejoin:miter;stroke:rgb(0%,0%,0%);stroke-opacity:1;stroke-miterlimit:10;" d="M 73.836306 182.360313 C 79.992233 185.889362 87.803978 187.833355 97.667698 188.589138 C 107.641291 189.310109 120.959015 189.70618 132.623243 186.429317 C 144.107189 182.866231 166.824386 168.718322 166.210805 167.99735 C 165.275345 167.421037 140.184294 179.805969 128.016357 182.360313 C 115.812827 184.736735 104.615942 184.089253 93.600113 182.073317 C 82.547918 179.84078 65.376162 169.760327 61.919837 169.617989 C 58.35596 169.546047 61.919837 173.253017 72.468323 181.279629 L 73.831664 182.360313 Z M 73.836306 182.360313 " transform="matrix(5.048488,0,0,5.049609,0,0.772876)"/>
<path style="fill-rule:evenodd;fill:rgb(0%,0%,0%);fill-opacity:1;stroke-width:0.036;stroke-linecap:butt;stroke-linejoin:miter;stroke:rgb(0%,0%,0%);stroke-opacity:1;stroke-miterlimit:10;" d="M 83.843943 3.546178 C 78.263684 0.485916 70.955648 -0.234282 61.632003 1.386357 C 52.235626 2.93428 37.475638 6.678382 28.043668 13.01396 C 18.467781 19.278369 9.647845 29.573876 5.040185 39.041658 C 0.431751 48.401913 -0.971826 58.374065 0.683992 69.102001 C 1.511901 68.057675 5.075777 66.977764 11.520311 65.86227 C 17.999665 64.674059 27.071842 63.594148 39.167821 62.333995 C 37.152211 66.94218 37.368087 72.989988 39.960138 80.478192 C 42.552188 87.965622 47.340132 96.642037 54.611801 107.045845 C 63.93622 97.900643 71.423765 89.009175 77.616058 79.686051 C 83.808351 70.397739 89.496162 63.485848 91.188345 51.749944 C 92.591921 39.942099 91.188345 25.866132 86.579911 9.234274 C 89.280286 7.253922 93.203955 6.030127 98.747848 5.166044 C 104.25615 4.266376 110.989292 4.121718 119.340337 4.338319 C 118.188229 3.402293 115.702955 2.645737 112.030754 1.926312 C 108.214637 1.097814 101.807242 -0.234282 97.127623 0.0179034 C 92.413186 0.301805 87.985035 1.381716 83.844717 3.54231 Z M 83.843943 3.546178 " transform="matrix(5.048488,0,0,5.049609,0,0.772876)"/>
<path style="fill-rule:evenodd;fill:rgb(25.098039%,50.196078%,0%);fill-opacity:1;stroke-width:0.036;stroke-linecap:butt;stroke-linejoin:miter;stroke:rgb(0%,0%,0%);stroke-opacity:1;stroke-miterlimit:10;" d="M 80.604267 4.626088 C 73.403782 13.266145 66.851697 21.83426 60.551853 30.618202 C 54.108092 39.402144 45.647948 47.970258 42.948346 56.898085 C 40.284337 65.682027 42.587781 75.689764 44.567798 83.177968 C 46.440264 90.594229 49.644349 96.42621 54.323967 101.069979 C 63.215862 92.07021 70.308022 83.358211 75.995833 74.790096 C 81.576092 66.113681 87.119986 61.326027 87.912303 49.590124 C 88.703845 37.782278 86.220119 22.986113 80.604267 4.626088 Z M 80.604267 4.626088 " transform="matrix(5.048488,0,0,5.049609,0,0.772876)"/>
<path style="fill-rule:evenodd;fill:rgb(0%,0%,0%);fill-opacity:1;stroke-width:0.036;stroke-linecap:butt;stroke-linejoin:miter;stroke:rgb(0%,0%,0%);stroke-opacity:1;stroke-miterlimit:10;" d="M 75.20429 26.58633 C 73.656023 28.818093 62.712153 52.577669 59.471703 62.87395 C 56.123702 72.95363 54.215643 89.046306 55.691951 86.994012 C 57.131893 84.653949 64.799721 60.065874 68.147722 49.877893 C 71.460131 39.617971 76.500316 24.499225 75.20429 26.58633 Z M 75.20429 26.58633 " transform="matrix(5.048488,0,0,5.049609,0,0.772876)"/>
<path style="fill-rule:evenodd;fill:rgb(25.098039%,50.196078%,0%);fill-opacity:1;stroke-width:0.036;stroke-linecap:butt;stroke-linejoin:miter;stroke:rgb(0%,0%,0%);stroke-opacity:1;stroke-miterlimit:10;" d="M 75.455758 3.798363 C 65.62763 3.690063 56.556226 5.274344 47.84384 8.405775 C 38.988312 11.537979 30.347885 16.290049 23.436007 22.5181 C 16.487764 28.709793 10.18792 38.322233 6.911877 45.521894 C 3.563876 52.650386 2.700375 59.057906 3.923668 65.033771 C 6.33621 63.594148 10.403795 62.333995 16.415806 61.254084 C 22.427816 60.174174 30.095643 59.273733 39.707896 58.554308 C 41.040288 52.361842 43.380097 46.349619 47.015932 40.373753 C 50.544216 34.362304 56.340351 28.818093 61.091928 22.770285 C 65.807913 16.577819 70.595856 10.386126 75.455758 3.798363 Z M 75.455758 3.798363 " transform="matrix(5.048488,0,0,5.049609,0,0.772876)"/>
<path style="fill-rule:evenodd;fill:rgb(0%,0%,0%);fill-opacity:1;stroke-width:0.036;stroke-linecap:butt;stroke-linejoin:miter;stroke:rgb(0%,0%,0%);stroke-opacity:1;stroke-miterlimit:10;" d="M 65.160287 9.774229 C 56.628184 13.41003 48.420282 18.593755 40.247971 25.470061 C 32.075661 32.273652 24.228324 40.625939 16.415806 50.670034 C 21.168156 47.322002 27.431634 42.317747 35.640311 35.514157 C 43.848214 28.63785 53.459693 20.106094 65.160287 9.774229 Z M 65.160287 9.774229 " transform="matrix(5.048488,0,0,5.049609,0,0.772876)"/>
</g>
</svg>

<?xml version="1.0" encoding="UTF-8" standalone="no"?>
<!-- Generator: Adobe Illustrator 10.0, SVG Export Plug-In . SVG Version: 3.0.0 Build 77)  -->
<svg
    xmlns:rdf="http://www.w3.org/1999/02/22-rdf-syntax-ns#"
    xmlns="http://www.w3.org/2000/svg"
    xmlns:x="http://ns.adobe.com/Extensibility/1.0/"
    xmlns:dc="http://purl.org/dc/elements/1.1/"
    xmlns:i="http://ns.adobe.com/AdobeIllustrator/10.0/"
    xmlns:cc="http://web.resource.org/cc/"
    xmlns:xlink="http://www.w3.org/1999/xlink"
    xmlns:a="http://ns.adobe.com/AdobeSVGViewerExtensions/3.0/"
    xmlns:graph="http://ns.adobe.com/Graphs/1.0/"
    xmlns:svg="http://www.w3.org/2000/svg"
    xmlns:inkscape="http://www.inkscape.org/namespaces/inkscape"
    xmlns:sodipodi="http://sodipodi.sourceforge.net/DTD/sodipodi-0.dtd"
    xmlns:ns1="http://sozi.baierouge.fr"
    i:rulerOrigin="0 0"
    i:viewOrigin="203.9995 494"
    space="preserve"
    i:pageBounds="0 792 612 0"
    viewBox="0 0 202.833 197.531"
    enable-background="new 0 0 202.833 197.531"
    overflow="visible"
  >
  <switch
    >
    <foreignObject
        y="0"
        width="1"
        requiredExtensions="http://ns.adobe.com/AdobeIllustrator/10.0/"
        x="0"
        height="1"
      >
      <i:pgfRef
          xlink:href="#adobe_illustrator_pgf"
      />
    </foreignObject
    >
    <g
        i:extraneous="self"
      >
      <g
          id="Layer_1"
          i:layer="yes"
          i:rgbTrio="#4F008000FFFF"
          i:dimmedPercent="50"
        >
        <g
            stroke-miterlimit="10"
            stroke="#000000"
            stroke-width=".036"
            clip-rule="evenodd"
            fill-rule="evenodd"
          >
          <path
              d="m75.744 14.922c-9.144 6.048-17.82 13.572-26.028 24.372-8.28 10.728-19.692 22.752-23.004 39.564-3.348 16.884-2.412 42.804 2.952 60.407 5.292 17.354 14.22 33.518 28.728 43.344 14.616 9.758 38.844 16.021 57.708 14.904 18.611-1.332 39.779-10.727 53.641-22.211 13.715-11.664 23.148-29.232 28.439-46.584 5.221-17.496 6.229-40.176 2.736-56.917-3.744-16.812-14.939-31.536-24.408-42.804-9.61-11.331-20.31-19.971-32.51-24.363-12.385-4.356-28.801-3.42-40.355-1.62-11.48 1.8-18.932 5.724-27.896 11.916z"
              i:knockout="Off"
          />
          <path
              d="m76.896 16.866c-8.856 5.868-17.064 13.104-25.056 23.509-8.1 10.26-18.756 22.14-22.248 38.16-3.456 16.056-2.844 40.356 1.98 57.491 4.896 17.029 12.96 33.877 27.108 43.885 14.148 9.793 38.34 16.057 56.881 14.904 18.432-1.297 39.6-11.34 53.1-22.5 13.248-11.412 21.635-27.793 26.568-44.676 4.787-16.992 5.867-39.564 2.412-55.908-3.602-16.38-14.4-30.42-23.51-41.292-9.215-10.944-19.619-19.296-31.355-23.508-11.916-4.104-27.863-3.384-38.951-1.584-11.094 1.654-18.258 5.542-26.934 11.518z"
              i:knockout="Off"
              fill="#FF8000"
          />
          <path
              d="m121.79 7.866c1.584-1.908 2.809-2.808 3.529-2.7 0.646 0.144 0.143 2.52 0.828 3.24 0.719 0.612 1.654 0.612 3.238 0.288 3.674-0.36 6.697-0.324 8.93 0.252 2.268 0.54 5.471 2.556 4.607 2.988-1.008 0.288-7.488-1.008-10.297-0.828-2.844 0.144-5.004 0.648-6.479 1.656-1.549-1.116-3.133-0.54-4.896 1.872-1.873 2.376-4.141 9-5.688 12.492-1.729 3.42-3.457 8.892-3.781 8.1-0.287-0.972 1.08-9.504 2.16-13.248 0.973-3.708 2.232-6.696 3.781-8.964-2.197-0.792-3.422-1.512-4.068-2.16-0.613-0.648-0.9-1.512 0.539-1.908 1.37-0.54 3.85-0.9 7.6-1.08z"
              i:knockout="Off"
          />
          <path
              d="m73.836 182.36c6.156 3.529 13.968 5.473 23.832 6.229 9.973 0.721 23.291 1.117 34.955-2.16 11.484-3.563 34.201-17.711 33.588-18.432-0.936-0.576-26.027 11.809-38.195 14.363-12.203 2.377-23.4 1.729-34.416-0.287-11.052-2.232-28.224-12.313-31.68-12.455-3.564-0.072 0 3.635 10.548 11.662l1.364 1.08z"
              i:knockout="Off"
          />
          <path
              d="m83.844 3.546c-5.58-3.06-12.888-3.78-22.212-2.16-9.396 1.548-24.156 5.292-33.588 11.628-9.576 6.264-18.396 16.56-23.004 26.028-4.608 9.36-6.012 19.332-4.356 30.06 0.828-1.044 4.392-2.124 10.836-3.24 6.48-1.188 15.552-2.268 27.648-3.528-2.016 4.608-1.8 10.656 0.792 18.144s7.38 16.164 14.652 26.568c9.324-9.145 16.812-18.037 23.004-27.36 6.192-9.288 11.88-16.2 13.572-27.936 1.404-11.808 0-25.884-4.608-42.516 2.7-1.98 6.624-3.204 12.168-4.068 5.508-0.9 12.241-1.044 20.592-0.828-1.152-0.936-3.637-1.692-7.309-2.412-3.816-0.828-10.224-2.16-14.903-1.908-4.715 0.284-9.143 1.364-13.283 3.524z"
              i:knockout="Off"
          />
          <path
              d="m80.604 4.626c-7.2 8.64-13.752 17.208-20.052 25.992-6.444 8.784-14.904 17.352-17.604 26.28-2.664 8.784-0.36 18.792 1.62 26.28 1.872 7.416 5.076 13.248 9.756 17.892 8.892-9 15.984-17.712 21.672-26.28 5.58-8.676 11.124-13.464 11.916-25.2 0.792-11.808-1.692-26.604-7.308-44.964z"
              i:knockout="Off"
              fill="#408000"
          />
          <path
              d="m75.204 26.586c-1.548 2.232-12.492 25.992-15.732 36.288-3.348 10.08-5.256 26.172-3.78 24.12 1.44-2.34 9.108-26.928 12.456-37.116 3.312-10.26 8.352-25.379 7.056-23.292z"
              i:knockout="Off"
          />
          <path
              d="m75.456 3.798c-9.828-0.108-18.9 1.476-27.612 4.608-8.856 3.132-17.496 7.884-24.408 14.112-6.948 6.192-13.248 15.804-16.524 23.004-3.348 7.128-4.212 13.536-2.988 19.512 2.412-1.44 6.48-2.7 12.492-3.78s13.68-1.98 23.292-2.7c1.332-6.192 3.672-12.204 7.308-18.18 3.528-6.012 9.324-11.556 14.076-17.604 4.716-6.192 9.504-12.384 14.364-18.972z"
              i:knockout="Off"
              fill="#408000"
          />
          <path
              d="m65.16 9.774c-8.532 3.636-16.74 8.82-24.912 15.696-8.172 6.804-16.02 15.156-23.832 25.2 4.752-3.348 11.016-8.352 19.224-15.156 8.208-6.876 17.82-15.408 29.52-25.74z"
              i:knockout="Off"
          />
        </g
        >
      </g
      >
    </g
    >
  </switch
  >
  <metadata
    >
    <rdf:RDF
      >
      <cc:Work
        >
        <dc:format
          >image/svg+xml</dc:format
        >
        <dc:type
            rdf:resource="http://purl.org/dc/dcmitype/StillImage"
        />
        <cc:license
            rdf:resource="http://creativecommons.org/licenses/publicdomain/"
        />
        <dc:publisher
          >
          <cc:Agent
              rdf:about="http://openclipart.org/"
            >
            <dc:title
              >Openclipart</dc:title
            >
          </cc:Agent
          >
        </dc:publisher
        >
        <dc:title
          >Simple Fruit Orange</dc:title
        >
        <dc:date
          >2007-11-15T00:18:12</dc:date
        >
        <dc:description
        />
        <dc:source
          >https://openclipart.org/detail/8537/simple-fruit-orange-by-gerald_g</dc:source
        >
        <dc:creator
          >
          <cc:Agent
            >
            <dc:title
              >Gerald_G</dc:title
            >
          </cc:Agent
          >
        </dc:creator
        >
        <dc:subject
          >
          <rdf:Bag
            >
            <rdf:li
              >food</rdf:li
            >
            <rdf:li
              >fruit</rdf:li
            >
            <rdf:li
              >orange</rdf:li
            >
          </rdf:Bag
          >
        </dc:subject
        >
      </cc:Work
      >
      <cc:License
          rdf:about="http://creativecommons.org/licenses/publicdomain/"
        >
        <cc:permits
            rdf:resource="http://creativecommons.org/ns#Reproduction"
        />
        <cc:permits
            rdf:resource="http://creativecommons.org/ns#Distribution"
        />
        <cc:permits
            rdf:resource="http://creativecommons.org/ns#DerivativeWorks"
        />
      </cc:License
      >
    </rdf:RDF
    >
  </metadata
  >
</svg
>
